images/50867358.svg

<?xml version="1.0" encoding="UTF-8"?>
<svg xmlns="http://www.w3.org/2000/svg" xmlns:xlink="http://www.w3.org/1999/xlink" width="300pt" height="300pt" viewBox="0 0 300 300" version="1.1">
<defs>
<g>
<symbol overflow="visible" id="glyph0-0">
<path style="stroke:none;" d="M 0.453125 1.59375 L 0.453125 -6.34375 L 4.953125 -6.34375 L 4.953125 1.59375 Z M 0.953125 1.09375 L 4.453125 1.09375 L 4.453125 -5.84375 L 0.953125 -5.84375 Z M 0.953125 1.09375 "/>
</symbol>
<symbol overflow="visible" id="glyph0-1">
<path style="stroke:none;" d="M 0.890625 -6.5625 L 4.65625 -6.5625 L 4.65625 -5.8125 L 1.765625 -5.8125 L 1.765625 -3.875 L 4.375 -3.875 L 4.375 -3.140625 L 1.765625 -3.140625 L 1.765625 0 L 0.890625 0 Z M 0.890625 -6.5625 "/>
</symbol>
<symbol overflow="visible" id="glyph0-2">
<path style="stroke:none;" d="M 0.890625 -6.5625 L 2.078125 -6.5625 L 4.984375 -1.078125 L 4.984375 -6.5625 L 5.84375 -6.5625 L 5.84375 0 L 4.65625 0 L 1.75 -5.484375 L 1.75 0 L 0.890625 0 Z M 0.890625 -6.5625 "/>
</symbol>
<symbol overflow="visible" id="glyph0-3">
<path style="stroke:none;" d="M 3.546875 -5.953125 C 2.898438 -5.953125 2.382812 -5.710938 2 -5.234375 C 1.625 -4.753906 1.4375 -4.101562 1.4375 -3.28125 C 1.4375 -2.445312 1.625 -1.789062 2 -1.3125 C 2.382812 -0.832031 2.898438 -0.59375 3.546875 -0.59375 C 4.191406 -0.59375 4.703125 -0.832031 5.078125 -1.3125 C 5.453125 -1.789062 5.640625 -2.445312 5.640625 -3.28125 C 5.640625 -4.101562 5.453125 -4.753906 5.078125 -5.234375 C 4.703125 -5.710938 4.191406 -5.953125 3.546875 -5.953125 Z M 3.546875 -6.6875 C 4.460938 -6.6875 5.195312 -6.375 5.75 -5.75 C 6.300781 -5.132812 6.578125 -4.3125 6.578125 -3.28125 C 6.578125 -2.238281 6.300781 -1.410156 5.75 -0.796875 C 5.195312 -0.179688 4.460938 0.125 3.546875 0.125 C 2.617188 0.125 1.878906 -0.179688 1.328125 -0.796875 C 0.773438 -1.410156 0.5 -2.238281 0.5 -3.28125 C 0.5 -4.3125 0.773438 -5.132812 1.328125 -5.75 C 1.878906 -6.375 2.617188 -6.6875 3.546875 -6.6875 Z M 3.546875 -6.6875 "/>
</symbol>
<symbol overflow="visible" id="glyph0-4">
<path style="stroke:none;" d="M 0.890625 -6.5625 L 1.765625 -6.5625 L 1.765625 -3.875 L 5 -3.875 L 5 -6.5625 L 5.890625 -6.5625 L 5.890625 0 L 5 0 L 5 -3.125 L 1.765625 -3.125 L 1.765625 0 L 0.890625 0 Z M 0.890625 -6.5625 "/>
</symbol>
</g>
</defs>
<g id="surface17365">
<rect x="0" y="0" width="300" height="300" style="fill:rgb(100%,100%,100%);fill-opacity:1;stroke:none;"/>
<path style="fill:none;stroke-width:1.2;stroke-linecap:butt;stroke-linejoin:miter;stroke:rgb(20%,80%,80%);stroke-opacity:1;stroke-miterlimit:10;" d="M 264.75 141.605469 L 255.628906 140.476562 "/>
<path style="fill:none;stroke-width:1.2;stroke-linecap:butt;stroke-linejoin:miter;stroke:rgb(0%,0%,0%);stroke-opacity:1;stroke-miterlimit:10;" d="M 255.628906 140.476562 L 246.507812 139.351562 "/>
<path style=" stroke:none;fill-rule:nonzero;fill:rgb(100%,100%,100%);fill-opacity:1;" d="M 261.75 136.105469 L 267.75 136.105469 L 267.75 147.105469 L 261.75 147.105469 Z M 261.75 136.105469 "/>
<g style="fill:rgb(20%,80%,80%);fill-opacity:1;">
  <use xlink:href="#glyph0-1" x="261.75" y="144.768555"/>
</g>
<path style="fill:none;stroke-width:1.2;stroke-linecap:butt;stroke-linejoin:miter;stroke:rgb(0%,0%,0%);stroke-opacity:1;stroke-miterlimit:10;" d="M 246.507812 139.351562 L 235.433594 154.019531 "/>
<path style="fill:none;stroke-width:1.2;stroke-linecap:butt;stroke-linejoin:miter;stroke:rgb(0%,0%,0%);stroke-opacity:1;stroke-miterlimit:10;" d="M 241.949219 138.210938 L 233.089844 149.949219 "/>
<path style="fill:none;stroke-width:1.2;stroke-linecap:butt;stroke-linejoin:miter;stroke:rgb(0%,0%,0%);stroke-opacity:1;stroke-miterlimit:10;" d="M 239.339844 122.421875 L 246.507812 139.351562 "/>
<path style="fill:none;stroke-width:1.2;stroke-linecap:butt;stroke-linejoin:miter;stroke:rgb(0%,0%,0%);stroke-opacity:1;stroke-miterlimit:10;" d="M 235.433594 154.019531 L 217.191406 151.765625 "/>
<path style="fill:none;stroke-width:1.2;stroke-linecap:butt;stroke-linejoin:miter;stroke:rgb(0%,0%,0%);stroke-opacity:1;stroke-miterlimit:10;" d="M 217.191406 151.765625 L 210.023438 134.839844 "/>
<path style="fill:none;stroke-width:1.2;stroke-linecap:butt;stroke-linejoin:miter;stroke:rgb(0%,0%,0%);stroke-opacity:1;stroke-miterlimit:10;" d="M 220.457031 148.386719 L 214.722656 134.84375 "/>
<path style="fill:none;stroke-width:1.2;stroke-linecap:butt;stroke-linejoin:miter;stroke:rgb(0%,0%,0%);stroke-opacity:1;stroke-miterlimit:10;" d="M 210.023438 134.839844 L 221.097656 120.167969 "/>
<path style="fill:none;stroke-width:1.2;stroke-linecap:butt;stroke-linejoin:miter;stroke:rgb(0%,0%,0%);stroke-opacity:1;stroke-miterlimit:10;" d="M 210.023438 134.839844 L 191.78125 132.582031 "/>
<path style="fill:none;stroke-width:1.2;stroke-linecap:butt;stroke-linejoin:miter;stroke:rgb(0%,0%,0%);stroke-opacity:1;stroke-miterlimit:10;" d="M 221.097656 120.167969 L 239.339844 122.421875 "/>
<path style="fill:none;stroke-width:1.2;stroke-linecap:butt;stroke-linejoin:miter;stroke:rgb(0%,0%,0%);stroke-opacity:1;stroke-miterlimit:10;" d="M 222.390625 124.683594 L 236.984375 126.488281 "/>
<path style="fill:none;stroke-width:1.2;stroke-linecap:butt;stroke-linejoin:miter;stroke:rgb(0%,0%,0%);stroke-opacity:1;stroke-miterlimit:10;" d="M 191.78125 132.582031 L 179.230469 146.015625 "/>
<path style="fill:none;stroke-width:1.2;stroke-linecap:butt;stroke-linejoin:miter;stroke:rgb(0%,0%,0%);stroke-opacity:1;stroke-miterlimit:10;" d="M 187.363281 130.972656 L 177.328125 141.71875 "/>
<path style="fill:none;stroke-width:1.2;stroke-linecap:butt;stroke-linejoin:miter;stroke:rgb(0%,0%,0%);stroke-opacity:1;stroke-miterlimit:10;" d="M 182.882812 116.496094 L 191.78125 132.582031 "/>
<path style="fill:none;stroke-width:1.2;stroke-linecap:butt;stroke-linejoin:miter;stroke:rgb(0%,0%,0%);stroke-opacity:1;stroke-miterlimit:10;" d="M 179.230469 146.015625 L 170.90625 142.125 "/>
<path style="fill:none;stroke-width:1.2;stroke-linecap:butt;stroke-linejoin:miter;stroke:rgb(0%,0%,100%);stroke-opacity:1;stroke-miterlimit:10;" d="M 170.90625 142.125 L 162.578125 138.230469 "/>
<path style="fill:none;stroke-width:1.2;stroke-linecap:butt;stroke-linejoin:miter;stroke:rgb(0%,0%,0%);stroke-opacity:1;stroke-miterlimit:10;" d="M 179.230469 146.015625 L 182.722656 164.0625 "/>
<path style="fill:none;stroke-width:1.2;stroke-linecap:butt;stroke-linejoin:miter;stroke:rgb(0%,0%,100%);stroke-opacity:1;stroke-miterlimit:10;" d="M 162.578125 138.230469 L 163.707031 129.109375 "/>
<path style="fill:none;stroke-width:1.2;stroke-linecap:butt;stroke-linejoin:miter;stroke:rgb(100%,0%,0%);stroke-opacity:1;stroke-miterlimit:10;" d="M 163.707031 129.109375 L 164.835938 119.988281 "/>
<path style="fill:none;stroke-width:1.2;stroke-linecap:butt;stroke-linejoin:miter;stroke:rgb(0%,0%,100%);stroke-opacity:1;stroke-miterlimit:10;" d="M 162.578125 138.230469 L 154.539062 142.679688 "/>
<path style="fill:none;stroke-width:1.2;stroke-linecap:butt;stroke-linejoin:miter;stroke:rgb(0%,0%,0%);stroke-opacity:1;stroke-miterlimit:10;" d="M 154.539062 142.679688 L 146.496094 147.128906 "/>
<path style=" stroke:none;fill-rule:nonzero;fill:rgb(100%,100%,100%);fill-opacity:1;" d="M 159.578125 132.730469 L 166.578125 132.730469 L 166.578125 143.730469 L 159.578125 143.730469 Z M 159.578125 132.730469 "/>
<g style="fill:rgb(0%,0%,100%);fill-opacity:1;">
  <use xlink:href="#glyph0-2" x="159.578125" y="141.393555"/>
</g>
<path style="fill:none;stroke-width:1.2;stroke-linecap:butt;stroke-linejoin:miter;stroke:rgb(100%,0%,0%);stroke-opacity:1;stroke-miterlimit:10;" d="M 164.835938 119.988281 L 173.859375 118.242188 "/>
<path style="fill:none;stroke-width:1.2;stroke-linecap:butt;stroke-linejoin:miter;stroke:rgb(0%,0%,0%);stroke-opacity:1;stroke-miterlimit:10;" d="M 173.859375 118.242188 L 182.882812 116.496094 "/>
<path style=" stroke:none;fill-rule:nonzero;fill:rgb(100%,100%,100%);fill-opacity:1;" d="M 160.835938 114.488281 L 168.835938 114.488281 L 168.835938 125.488281 L 160.835938 125.488281 Z M 160.835938 114.488281 "/>
<g style="fill:rgb(100%,0%,0%);fill-opacity:1;">
  <use xlink:href="#glyph0-3" x="160.835938" y="123.151367"/>
</g>
<path style="fill:none;stroke-width:1.2;stroke-linecap:butt;stroke-linejoin:miter;stroke:rgb(0%,0%,0%);stroke-opacity:1;stroke-miterlimit:10;" d="M 184.839844 117.414062 L 188.734375 109.085938 "/>
<path style="fill:none;stroke-width:1.2;stroke-linecap:butt;stroke-linejoin:miter;stroke:rgb(100%,0%,0%);stroke-opacity:1;stroke-miterlimit:10;" d="M 188.734375 109.085938 L 192.625 100.761719 "/>
<path style="fill:none;stroke-width:1.2;stroke-linecap:butt;stroke-linejoin:miter;stroke:rgb(0%,0%,0%);stroke-opacity:1;stroke-miterlimit:10;" d="M 180.921875 115.582031 L 184.8125 107.253906 "/>
<path style="fill:none;stroke-width:1.2;stroke-linecap:butt;stroke-linejoin:miter;stroke:rgb(100%,0%,0%);stroke-opacity:1;stroke-miterlimit:10;" d="M 184.8125 107.253906 L 188.707031 98.929688 "/>
<path style=" stroke:none;fill-rule:nonzero;fill:rgb(100%,100%,100%);fill-opacity:1;" d="M 186.664062 94.34375 L 194.664062 94.34375 L 194.664062 105.34375 L 186.664062 105.34375 Z M 186.664062 94.34375 "/>
<g style="fill:rgb(100%,0%,0%);fill-opacity:1;">
  <use xlink:href="#glyph0-3" x="186.664062" y="103.006836"/>
</g>
<path style="fill:none;stroke-width:1.2;stroke-linecap:butt;stroke-linejoin:miter;stroke:rgb(0%,0%,0%);stroke-opacity:1;stroke-miterlimit:10;" d="M 144.332031 147.089844 L 144.164062 156.277344 "/>
<path style="fill:none;stroke-width:1.2;stroke-linecap:butt;stroke-linejoin:miter;stroke:rgb(100%,0%,0%);stroke-opacity:1;stroke-miterlimit:10;" d="M 144.164062 156.277344 L 143.996094 165.46875 "/>
<path style="fill:none;stroke-width:1.2;stroke-linecap:butt;stroke-linejoin:miter;stroke:rgb(0%,0%,0%);stroke-opacity:1;stroke-miterlimit:10;" d="M 148.65625 147.167969 L 148.488281 156.359375 "/>
<path style="fill:none;stroke-width:1.2;stroke-linecap:butt;stroke-linejoin:miter;stroke:rgb(100%,0%,0%);stroke-opacity:1;stroke-miterlimit:10;" d="M 148.488281 156.359375 L 148.320312 165.546875 "/>
<path style="fill:none;stroke-width:1.2;stroke-linecap:butt;stroke-linejoin:miter;stroke:rgb(0%,0%,0%);stroke-opacity:1;stroke-miterlimit:10;" d="M 146.496094 147.128906 L 138.621094 142.390625 "/>
<path style="fill:none;stroke-width:1.2;stroke-linecap:butt;stroke-linejoin:miter;stroke:rgb(0%,0%,100%);stroke-opacity:1;stroke-miterlimit:10;" d="M 138.621094 142.390625 L 130.746094 137.648438 "/>
<path style=" stroke:none;fill-rule:nonzero;fill:rgb(100%,100%,100%);fill-opacity:1;" d="M 142.160156 160.007812 L 150.160156 160.007812 L 150.160156 171.007812 L 142.160156 171.007812 Z M 142.160156 160.007812 "/>
<g style="fill:rgb(100%,0%,0%);fill-opacity:1;">
  <use xlink:href="#glyph0-3" x="142.160156" y="168.670898"/>
</g>
<path style="fill:none;stroke-width:1.2;stroke-linecap:butt;stroke-linejoin:miter;stroke:rgb(0%,0%,100%);stroke-opacity:1;stroke-miterlimit:10;" d="M 130.746094 137.648438 L 122.703125 142.097656 "/>
<path style="fill:none;stroke-width:1.2;stroke-linecap:butt;stroke-linejoin:miter;stroke:rgb(0%,0%,0%);stroke-opacity:1;stroke-miterlimit:10;" d="M 122.703125 142.097656 L 114.664062 146.546875 "/>
<path style=" stroke:none;fill-rule:nonzero;fill:rgb(100%,100%,100%);fill-opacity:1;" d="M 123.746094 132.148438 L 137.746094 132.148438 L 137.746094 143.148438 L 123.746094 143.148438 Z M 123.746094 132.148438 "/>
<g style="fill:rgb(0%,0%,100%);fill-opacity:1;">
  <use xlink:href="#glyph0-2" x="123.746094" y="140.811523"/>
  <use xlink:href="#glyph0-4" x="130.723633" y="140.811523"/>
</g>
<path style="fill:none;stroke-width:1.2;stroke-linecap:butt;stroke-linejoin:miter;stroke:rgb(0%,0%,0%);stroke-opacity:1;stroke-miterlimit:10;" d="M 114.664062 146.546875 L 98.914062 137.066406 "/>
<path style="fill:none;stroke-width:1.2;stroke-linecap:butt;stroke-linejoin:miter;stroke:rgb(0%,0%,0%);stroke-opacity:1;stroke-miterlimit:10;" d="M 98.914062 137.066406 L 82.832031 145.964844 "/>
<path style="fill:none;stroke-width:1.2;stroke-linecap:butt;stroke-linejoin:miter;stroke:rgb(0%,0%,0%);stroke-opacity:1;stroke-miterlimit:10;" d="M 82.832031 145.964844 L 74.957031 141.222656 "/>
<path style="fill:none;stroke-width:1.2;stroke-linecap:butt;stroke-linejoin:miter;stroke:rgb(100%,0%,0%);stroke-opacity:1;stroke-miterlimit:10;" d="M 74.957031 141.222656 L 67.082031 136.484375 "/>
<path style="fill:none;stroke-width:1.2;stroke-linecap:butt;stroke-linejoin:miter;stroke:rgb(0%,0%,0%);stroke-opacity:1;stroke-miterlimit:10;" d="M 80.667969 145.921875 L 80.5 155.113281 "/>
<path style="fill:none;stroke-width:1.2;stroke-linecap:butt;stroke-linejoin:miter;stroke:rgb(100%,0%,0%);stroke-opacity:1;stroke-miterlimit:10;" d="M 80.5 155.113281 L 80.332031 164.300781 "/>
<path style="fill:none;stroke-width:1.2;stroke-linecap:butt;stroke-linejoin:miter;stroke:rgb(0%,0%,0%);stroke-opacity:1;stroke-miterlimit:10;" d="M 84.992188 146.003906 L 84.824219 155.191406 "/>
<path style="fill:none;stroke-width:1.2;stroke-linecap:butt;stroke-linejoin:miter;stroke:rgb(100%,0%,0%);stroke-opacity:1;stroke-miterlimit:10;" d="M 84.824219 155.191406 L 84.65625 164.382812 "/>
<path style="fill:none;stroke-width:1.2;stroke-linecap:butt;stroke-linejoin:miter;stroke:rgb(100%,0%,0%);stroke-opacity:1;stroke-miterlimit:10;" d="M 67.082031 136.484375 L 59.039062 140.929688 "/>
<path style="fill:none;stroke-width:1.2;stroke-linecap:butt;stroke-linejoin:miter;stroke:rgb(0%,0%,0%);stroke-opacity:1;stroke-miterlimit:10;" d="M 59.039062 140.929688 L 50.996094 145.378906 "/>
<path style=" stroke:none;fill-rule:nonzero;fill:rgb(100%,100%,100%);fill-opacity:1;" d="M 63.082031 130.984375 L 71.082031 130.984375 L 71.082031 141.984375 L 63.082031 141.984375 Z M 63.082031 130.984375 "/>
<g style="fill:rgb(100%,0%,0%);fill-opacity:1;">
  <use xlink:href="#glyph0-3" x="63.082031" y="139.647461"/>
</g>
<path style="fill:none;stroke-width:1.2;stroke-linecap:butt;stroke-linejoin:miter;stroke:rgb(0%,0%,0%);stroke-opacity:1;stroke-miterlimit:10;" d="M 50.996094 145.378906 L 35.25 135.898438 "/>
<path style=" stroke:none;fill-rule:nonzero;fill:rgb(100%,100%,100%);fill-opacity:1;" d="M 78.492188 158.839844 L 86.492188 158.839844 L 86.492188 169.839844 L 78.492188 169.839844 Z M 78.492188 158.839844 "/>
<g style="fill:rgb(100%,0%,0%);fill-opacity:1;">
  <use xlink:href="#glyph0-3" x="78.492188" y="167.50293"/>
</g>
<path style="fill:none;stroke-width:1.2;stroke-linecap:butt;stroke-linejoin:miter;stroke:rgb(0%,0%,0%);stroke-opacity:1;stroke-miterlimit:10;" d="M 182.722656 164.0625 L 168.839844 176.109375 "/>
<path style="fill:none;stroke-width:1.2;stroke-linecap:butt;stroke-linejoin:miter;stroke:rgb(0%,0%,0%);stroke-opacity:1;stroke-miterlimit:10;" d="M 184.171875 168.53125 L 173.0625 178.171875 "/>
<path style="fill:none;stroke-width:1.2;stroke-linecap:butt;stroke-linejoin:miter;stroke:rgb(0%,0%,0%);stroke-opacity:1;stroke-miterlimit:10;" d="M 200.097656 170.0625 L 182.722656 164.0625 "/>
<path style="fill:none;stroke-width:1.2;stroke-linecap:butt;stroke-linejoin:miter;stroke:rgb(0%,0%,0%);stroke-opacity:1;stroke-miterlimit:10;" d="M 168.839844 176.109375 L 172.332031 194.15625 "/>
<path style="fill:none;stroke-width:1.2;stroke-linecap:butt;stroke-linejoin:miter;stroke:rgb(0%,0%,0%);stroke-opacity:1;stroke-miterlimit:10;" d="M 172.332031 194.15625 L 181.019531 197.15625 "/>
<path style="fill:none;stroke-width:1.2;stroke-linecap:butt;stroke-linejoin:miter;stroke:rgb(0%,0%,100%);stroke-opacity:1;stroke-miterlimit:10;" d="M 181.019531 197.15625 L 189.707031 200.15625 "/>
<path style="fill:none;stroke-width:1.2;stroke-linecap:butt;stroke-linejoin:miter;stroke:rgb(0%,0%,0%);stroke-opacity:1;stroke-miterlimit:10;" d="M 175.480469 190.667969 L 182.429688 193.066406 "/>
<path style="fill:none;stroke-width:1.2;stroke-linecap:butt;stroke-linejoin:miter;stroke:rgb(0%,0%,100%);stroke-opacity:1;stroke-miterlimit:10;" d="M 182.429688 193.066406 L 189.382812 195.46875 "/>
<path style="fill:none;stroke-width:1.2;stroke-linecap:butt;stroke-linejoin:miter;stroke:rgb(0%,0%,100%);stroke-opacity:1;stroke-miterlimit:10;" d="M 189.707031 200.15625 L 196.648438 194.132812 "/>
<path style="fill:none;stroke-width:1.2;stroke-linecap:butt;stroke-linejoin:miter;stroke:rgb(0%,0%,0%);stroke-opacity:1;stroke-miterlimit:10;" d="M 196.648438 194.132812 L 203.589844 188.109375 "/>
<path style=" stroke:none;fill-rule:nonzero;fill:rgb(100%,100%,100%);fill-opacity:1;" d="M 186.707031 194.65625 L 193.707031 194.65625 L 193.707031 205.65625 L 186.707031 205.65625 Z M 186.707031 194.65625 "/>
<g style="fill:rgb(0%,0%,100%);fill-opacity:1;">
  <use xlink:href="#glyph0-2" x="186.707031" y="203.319336"/>
</g>
<path style="fill:none;stroke-width:1.2;stroke-linecap:butt;stroke-linejoin:miter;stroke:rgb(0%,0%,0%);stroke-opacity:1;stroke-miterlimit:10;" d="M 203.589844 188.109375 L 200.097656 170.0625 "/>
<path style="fill:none;stroke-width:1.2;stroke-linecap:butt;stroke-linejoin:miter;stroke:rgb(0%,0%,0%);stroke-opacity:1;stroke-miterlimit:10;" d="M 198.996094 187.125 L 196.203125 172.6875 "/>
</g>
</svg>

<svg xmlns="http://www.w3.org/2000/svg" xmlns:xlink="http://www.w3.org/1999/xlink" width="300pt" height="300pt" viewBox="0 0 300 300"><defs><symbol overflow="visible"><path d="M.453 1.594v-7.938h4.5v7.938zm.5-.5h3.5v-6.938h-3.5zm0 0"/></symbol><symbol overflow="visible" id="a"><path d="M.89-6.563h3.766v.75h-2.89v1.938h2.61v.734h-2.61V0H.89zm0 0"/></symbol><symbol overflow="visible" id="b"><path d="M.89-6.563H2.08l2.906 5.485v-5.484h.86V0H4.656L1.75-5.484V0H.89zm0 0"/></symbol><symbol overflow="visible" id="c"><path d="M3.547-5.953c-.65 0-1.164.242-1.547.72-.375.48-.563 1.13-.563 1.952 0 .835.188 1.49.563 1.967.383.48.898.72 1.547.72.644 0 1.156-.24 1.53-.72.376-.476.564-1.132.564-1.968 0-.822-.187-1.474-.562-1.954-.375-.477-.887-.72-1.53-.72zm0-.734c.914 0 1.648.312 2.203.937.55.617.828 1.438.828 2.47 0 1.042-.277 1.87-.828 2.483-.555.617-1.29.922-2.203.922-.93 0-1.668-.305-2.22-.922C.774-1.41.5-2.237.5-3.28c0-1.033.273-1.853.828-2.47.55-.625 1.29-.938 2.22-.938zm0 0"/></symbol><symbol overflow="visible" id="d"><path d="M.89-6.563h.876v2.688H5v-2.688h.89V0H5v-3.125H1.766V0H.89zm0 0"/></symbol></defs><g><path fill="#fff" d="M0 0h300v300H0z"/><path d="M264.75 141.605l-9.12-1.128" stroke-width="1.2" stroke="#3cc" stroke-miterlimit="10" fill="none"/><path d="M255.63 140.477l-9.122-1.125" stroke-width="1.2" stroke="#000" stroke-miterlimit="10" fill="none"/><path d="M261.75 136.105h6v11h-6zm0 0" fill="#fff"/><use xlink:href="#a" x="261.75" y="144.769" fill="#3cc"/><path d="M246.508 139.352l-11.074 14.668M241.95 138.21l-8.86 11.74M239.34 122.422l7.168 16.93M235.434 154.02l-18.243-2.254M217.19 151.766l-7.167-16.926M220.457 148.387l-5.734-13.543M210.023 134.84l11.075-14.672M210.023 134.84l-18.242-2.258M221.098 120.168l18.242 2.254M222.39 124.684l14.594 1.804M191.78 132.582l-12.55 13.434M187.363 130.973l-10.035 10.746M182.883 116.496l8.898 16.086M179.23 146.016l-8.324-3.89" stroke-width="1.2" stroke="#000" stroke-miterlimit="10" fill="none"/><path d="M170.906 142.125l-8.328-3.895" stroke-width="1.2" stroke="#00f" stroke-miterlimit="10" fill="none"/><path d="M179.23 146.016l3.493 18.047" stroke-width="1.2" stroke="#000" stroke-miterlimit="10" fill="none"/><path d="M162.578 138.23l1.13-9.12" stroke-width="1.2" stroke="#00f" stroke-miterlimit="10" fill="none"/><path d="M163.707 129.11l1.13-9.122" stroke-width="1.2" stroke="#f00" stroke-miterlimit="10" fill="none"/><path d="M162.578 138.23l-8.04 4.45" stroke-width="1.2" stroke="#00f" stroke-miterlimit="10" fill="none"/><path d="M154.54 142.68l-8.044 4.45" stroke-width="1.2" stroke="#000" stroke-miterlimit="10" fill="none"/><path d="M159.578 132.73h7v11h-7zm0 0" fill="#fff"/><use xlink:href="#b" x="159.578" y="141.394" fill="#00f"/><path d="M164.836 119.988l9.023-1.746" stroke-width="1.2" stroke="#f00" stroke-miterlimit="10" fill="none"/><path d="M173.86 118.242l9.023-1.746" stroke-width="1.2" stroke="#000" stroke-miterlimit="10" fill="none"/><path d="M160.836 114.488h8v11h-8zm0 0" fill="#fff"/><use xlink:href="#c" x="160.836" y="123.151" fill="#f00"/><path d="M184.84 117.414l3.894-8.328" stroke-width="1.2" stroke="#000" stroke-miterlimit="10" fill="none"/><path d="M188.734 109.086l3.89-8.324" stroke-width="1.2" stroke="#f00" stroke-miterlimit="10" fill="none"/><path d="M180.922 115.582l3.89-8.328" stroke-width="1.2" stroke="#000" stroke-miterlimit="10" fill="none"/><path d="M184.813 107.254l3.894-8.324" stroke-width="1.2" stroke="#f00" stroke-miterlimit="10" fill="none"/><path d="M186.664 94.344h8v11h-8zm0 0" fill="#fff"/><use xlink:href="#c" x="186.664" y="103.007" fill="#f00"/><path d="M144.332 147.09l-.168 9.187" stroke-width="1.2" stroke="#000" stroke-miterlimit="10" fill="none"/><path d="M144.164 156.277l-.168 9.192" stroke-width="1.2" stroke="#f00" stroke-miterlimit="10" fill="none"/><path d="M148.656 147.168l-.168 9.19" stroke-width="1.2" stroke="#000" stroke-miterlimit="10" fill="none"/><path d="M148.488 156.36l-.168 9.187" stroke-width="1.2" stroke="#f00" stroke-miterlimit="10" fill="none"/><path d="M146.496 147.13l-7.875-4.74" stroke-width="1.2" stroke="#000" stroke-miterlimit="10" fill="none"/><path d="M138.62 142.39l-7.874-4.742" stroke-width="1.2" stroke="#00f" stroke-miterlimit="10" fill="none"/><path d="M142.16 160.008h8v11h-8zm0 0" fill="#fff"/><use xlink:href="#c" x="142.16" y="168.671" fill="#f00"/><path d="M130.746 137.648l-8.043 4.45" stroke-width="1.2" stroke="#00f" stroke-miterlimit="10" fill="none"/><path d="M122.703 142.098l-8.04 4.45" stroke-width="1.2" stroke="#000" stroke-miterlimit="10" fill="none"/><path d="M123.746 132.148h14v11h-14zm0 0" fill="#fff"/><g fill="#00f"><use xlink:href="#b" x="123.746" y="140.812"/><use xlink:href="#d" x="130.724" y="140.812"/></g><path d="M114.664 146.547l-15.75-9.48M98.914 137.066l-16.082 8.9M82.832 145.965l-7.875-4.742" stroke-width="1.2" stroke="#000" stroke-miterlimit="10" fill="none"/><path d="M74.957 141.223l-7.875-4.74" stroke-width="1.2" stroke="#f00" stroke-miterlimit="10" fill="none"/><path d="M80.668 145.922l-.168 9.19" stroke-width="1.2" stroke="#000" stroke-miterlimit="10" fill="none"/><path d="M80.5 155.113l-.168 9.188" stroke-width="1.2" stroke="#f00" stroke-miterlimit="10" fill="none"/><path d="M84.992 146.004l-.168 9.187" stroke-width="1.2" stroke="#000" stroke-miterlimit="10" fill="none"/><path d="M84.824 155.19l-.168 9.193M67.082 136.484l-8.043 4.446" stroke-width="1.2" stroke="#f00" stroke-miterlimit="10" fill="none"/><path d="M59.04 140.93l-8.044 4.45" stroke-width="1.2" stroke="#000" stroke-miterlimit="10" fill="none"/><path d="M63.082 130.984h8v11h-8zm0 0" fill="#fff"/><use xlink:href="#c" x="63.082" y="139.647" fill="#f00"/><path d="M50.996 145.38l-15.746-9.482" stroke-width="1.2" stroke="#000" stroke-miterlimit="10" fill="none"/><path d="M78.492 158.84h8v11h-8zm0 0" fill="#fff"/><use xlink:href="#c" x="78.492" y="167.503" fill="#f00"/><path d="M182.723 164.063l-13.883 12.046M184.172 168.53l-11.11 9.642M200.098 170.063l-17.375-6M168.84 176.11l3.492 18.046M172.332 194.156l8.688 3" stroke-width="1.2" stroke="#000" stroke-miterlimit="10" fill="none"/><path d="M181.02 197.156l8.687 3" stroke-width="1.2" stroke="#00f" stroke-miterlimit="10" fill="none"/><path d="M175.48 190.668l6.95 2.398" stroke-width="1.2" stroke="#000" stroke-miterlimit="10" fill="none"/><path d="M182.43 193.066l6.953 2.403M189.707 200.156l6.94-6.023" stroke-width="1.2" stroke="#00f" stroke-miterlimit="10" fill="none"/><path d="M196.648 194.133l6.942-6.024" stroke-width="1.2" stroke="#000" stroke-miterlimit="10" fill="none"/><path d="M186.707 194.656h7v11h-7zm0 0" fill="#fff"/><use xlink:href="#b" x="186.707" y="203.319" fill="#00f"/><path d="M203.59 188.11l-3.492-18.048M198.996 187.125l-2.793-14.438" stroke-width="1.2" stroke="#000" stroke-miterlimit="10" fill="none"/></g></svg>
